!!!OTL: I'm a Little Teapot
!!!COM: unknown
!!!ODT: unknown
!!!YOR: Usborne Nursery Rhyme Songbook
!!!YOY: 1996
!!!AST: Children's song
!!!YEC: Brian Luke, 2001
**kern	**harm
*MM72	*
*k[]	*k[]
*M4/4	*M4/4
*C:	*C:
*>A	*>A
=1	=1
8c	I
8d	.
8e	.
8f	.
4g	.
4cc	.
=2	=2
4a	IV
4cc	.
4g	I
4r	.
=3	=3
4f	V7
8f	.
8f	.
4e	I
4e	.
=4	=4
4d	V7
8d	.
8d	.
4c	I;
4r	.
*>A'	*>A'
=5	=5
*MM82	*
8c	I
8d	.
8e	.
8f	.
4g	.
4cc	.
=6	=6
4a	IV
4cc	.
4g	I
4r	.
=7	=7
4cc	.
8r	.
8a	.
8g	.
8g	.
4f	IV
=8	=8
4e	I
4d	V7
4c	I;
4r	.
*-	*-
